svg/Outline/group-circle.svg

<svg viewBox="0 0 24 24" xmlns="http://www.w3.org/2000/svg" width="24" height="24"><path d="M12.7 10.9a3.9 3.9 0 1 1-7.8 0 3.9 3.9 0 0 1 7.8 0m6.4 1.73a2.92 2.92 0 1 1-5.85 0 2.92 2.92 0 0 1 5.84 0"/><path fill-rule="evenodd" d="M12 1a11 11 0 1 1 0 22 11 11 0 0 1 0-22m0 1.8a9.2 9.2 0 0 0-7.54 14.46q.14.21.22.25a.3.3 0 0 0 .2.03q.09-.02.31-.21l.3-.23a5.63 5.63 0 0 1 7.94 1.38c.45.69.23 1.4-.2 1.98-.08.11.03-.06-.12.17-.16.24-.02.47.28.47.62 0 .84-.17 1.19-.47s.7-1.52 0-2.72l-.1-.15-.2-.3q-.19-.22-.2-.32a.3.3 0 0 1 .05-.2c.05-.07.12-.1.27-.18a4 4 0 0 1 4.4.57c.17.14.25.2.33.22q.1.02.2-.02.07-.05.22-.26A9.2 9.2 0 0 0 12 2.8" clip-rule="evenodd"/></svg>

<svg viewBox="0 0 24 24" xmlns="http://www.w3.org/2000/svg" width="24" height="24"><path d="M12.7 10.9a3.9 3.9 0 1 1-7.8 0 3.9 3.9 0 0 1 7.8 0m6.4 1.73a2.92 2.92 0 1 1-5.85 0 2.92 2.92 0 0 1 5.84 0"/><path fill-rule="evenodd" d="M12 1a11 11 0 1 1 0 22 11 11 0 0 1 0-22M12 2.8A9.2 9.2 0 0 0 4.46 17.26Q4.6 17.47 4.68 17.51A.3 .3 0 0 0 4.88 17.54Q4.97 17.52 5.19 17.33L5.49 17.1A5.63 5.63 0 0 1 13.43 18.48C13.88 19.17 13.66 19.88 13.23 20.46C13.15 20.57 13.26 20.4 13.11 20.63C12.95 20.87 13.09 21.1 13.39 21.1C14.01 21.1 14.23 20.93 14.58 20.63C14.93 20.33 15.28 19.11 14.58 17.91L14.28 17.46Q14.09 17.24 14.08 17.14A.3 .3 0 0 1 14.13 16.94C14.18 16.87 14.25 16.84 14.4 16.76A4 4 0 0 1 18.8 17.33C18.97 17.47 19.05 17.53 19.13 17.55Q19.23 17.57 19.33 17.53Q19.4 17.48 19.55 17.27A9.2 9.2 0 0 0 12 2.8" clip-rule="evenodd"/></svg>
